X:1
T:Pretty Boy Floyd
M:2/4
L:1/8
K:F
 FA| Ac c2-| c4-| c3 d| c A3-| A4-| A2 G2| FF FF| C4-| C4-| CC C2|\
 D/2D/2 DD C| A, C3-| C4-| C2 CC| DF FG| F4-| F2||
